assets/icons/qvision/sentiment_very_dissatisfied.svg

<svg width="24" height="24" viewBox="0 0 24 24" fill="none" xmlns="http://www.w3.org/2000/svg">
<g clip-path="url(#clip0_147_6675)">
<path d="M15.5 11C16.3284 11 17 10.3284 17 9.5C17 8.67157 16.3284 8 15.5 8C14.6716 8 14 8.67157 14 9.5C14 10.3284 14.6716 11 15.5 11Z" fill="#323232"/>
<path d="M8.5 11C9.32843 11 10 10.3284 10 9.5C10 8.67157 9.32843 8 8.5 8C7.67157 8 7 8.67157 7 9.5C7 10.3284 7.67157 11 8.5 11Z" fill="#323232"/>
<path d="M11.99 2C6.47 2 2 6.48 2 12C2 17.52 6.47 22 11.99 22C17.52 22 22 17.52 22 12C22 6.48 17.52 2 11.99 2ZM12 20C7.58 20 4 16.42 4 12C4 7.58 7.58 4 12 4C16.42 4 20 7.58 20 12C20 16.42 16.42 20 12 20ZM12 14C9.67 14 7.68 15.45 6.88 17.5H8.55C9.24 16.31 10.52 15.5 12 15.5C13.48 15.5 14.75 16.31 15.45 17.5H17.12C16.32 15.45 14.33 14 12 14Z" fill="#323232"/>
</g>
<defs>
<clipPath id="clip0_147_6675">
<rect width="24" height="24" fill="white"/>
</clipPath>
</defs>
</svg>

<svg xmlns="http://www.w3.org/2000/svg" height="24" viewBox="0 0 24 24" width="24"><path d="M0 0h24v24H0V0z" fill="none"/><circle cx="15.5" cy="9.5" r="1.5"/><circle cx="8.5" cy="9.5" r="1.5"/><path d="M11.99 2C6.47 2 2 6.48 2 12s4.47 10 9.99 10C17.52 22 22 17.52 22 12S17.52 2 11.99 2zM12 20c-4.42 0-8-3.58-8-8s3.58-8 8-8 8 3.58 8 8-3.58 8-8 8zm0-6c-2.33 0-4.32 1.45-5.12 3.5h1.67c.69-1.19 1.97-2 3.45-2s2.75.81 3.45 2h1.67c-.8-2.05-2.79-3.5-5.12-3.5z"/></svg>
